X:1
T:Title
%%score { ( 1 3 ) | ( 2 4 ) }
L:1/8
Q:1/4=100
M:6/8
K:Db
V:1 treble nm="Grand Piano"
V:3 treble 
V:2 bass 
V:4 bass 
V:1
 [DF]2 [EG] [_F=G]2 [=FA] | [GB]3 [FA]3 | [Fd]2 [FA] [_Fc]2 [FB] | [FA]6 | [=DB]2 [DB] BA[DF] | %5
w: J.~Lincoln~Hall * * *|||||
 [EA]3 G3 | [CA]2 [CG] E2 [C_F] | [DF]6 | .A3 .B3 | e3 d3 | .e3 .A3 | B6 | .d3 .c3 | %13
w: ||||||||
[M:15/16] A->AFD->DE-E3/2 |[M:3/4] [DF]2 [DA] [CB]2 [CA] | D6 | F3 A3 | z D ad' c'b | B3 d3 | %19
w: ||||||
 b2 z2 z2 | [FA]2 z .[Fc]3 | [Gd]3 [Gc]3 | [GA]2 z .[Gc]3 | [Fe]3 [Fd]3 | F3 A3 | z D ad' c'b | %26
w: |||||||
 B3 d3 | b2 z2 z2 | A2 z .f3 | [Fd]6 |] %30
w: ||||
V:2
 D,F,A, B,=G,F, | D,G,B, DA,F, | D,F,A, B,=G,_F, | D,F,A, DA,F, | B,,=D,F, B,F,D, | E,G,B, EB,G, | %6
 A,,E,A, CA,C, | D,F,A, B,A,F, | D,[F,A,][F,A,D] [F,A,D][F,A,][F,A,D] | %9
 D,[F,A,][F,A,] [F,A,D][F,A,][F,A,] | [D,F,A,_C][D,F,A,][D,F,A,C] [D,F,A,C][D,F,A,][D,F,A,C] | %11
 G,,[G,B,][G,B,] [G,B,][G,B,][G,B,] | [=G,B,_F][G,B,][K:treble][G,B,F] [G,CF][G,C][G,DF] | %13
[M:15/16] [A,DF]->[A,DF][K:bass][D,A,D][=A,,_F,=A,]3/2- [A,,F,A,]3 | %14
[M:3/4] [A,,A,]2 [A,,F,] [A,,E,]2 [A,,G,] | [D,F,]6 | D,[F,A,] [F,A,]D, [F,A,][F,A,] | %17
 D,[F,A,] [F,A,D]D, [F,A,D][F,A,D] | G,B, B,G, B,B, | G,B, [B,D]G, [B,D][B,D] | %20
 D,F, [F,A,D]D, F,[F,A,D] | E,G, G,E, G,G, | E,G, [F,G,A,]E, G,[G,A,C] | D,F, F,D, F,F, | %24
 D,[F,A,] [F,A,]D, [F,A,][F,A,] | D,[F,A,] [F,A,D]D, [F,A,D][F,A,D] | G,B, B,G, B,B, | %27
 G,B, [B,D]G,[K:treble] [B,D][B,D] | F2 z .A3 | [D,A,]6 |] %30
V:3
 x6 | x6 | x6 | x6 | z3 .=D3 | x6 | x6 | x6 | z DA z Dc | z DD z DD | z _Cd z C=A | z DD DDD | %12
 z _Fd z FB |[M:15/16] x15/2 |[M:3/4] x6 | x6 | z D .D2 DD | f2 z2 z2 | z D .D2 DD | z D d'e' d'b | %20
 z [A,D] .[FB]2 [A,D][Fd] | z [A,C] .[A,C]2 [A,C][A,C] | z [A,C] .[CGB]2 [A,C][Ge] | %23
 z [A,D] .[A,D]2 [A,D][A,D] | z D .D2 DD | f2 z2 z2 | z D .D2 DD | z D d'e' d'b | z D .d2 De | %29
 x6 |] %30
V:4
 x6 | x6 | x6 | x6 | x6 | x6 | x6 | x6 | x6 | x6 | x6 | x6 | x2[K:treble] x4 | %13
[M:15/16] x2[K:bass] x11/2 |[M:3/4] x6 | x6 | x6 | x6 | x6 | x6 | x6 | x6 | x6 | x6 | x6 | x6 | %26
 x6 | x4[K:treble] x2 | [A,D]A, [A,DF][A,D] A,[A,CG] | x6 |] %30

